src/svg/auto.svg

<svg width="21" height="20" viewBox="0 0 21 20" fill="none" xmlns="http://www.w3.org/2000/svg">
<path fill-rule="evenodd" clip-rule="evenodd" d="M18.2266 9.15204C18.0825 8.86935 17.6981 8.55346 17.6981 8.55346L16.1127 4.24699C15.7763 3.43229 14.8155 3 14.399 3H6.61586C6.19948 3 5.22256 3.43229 4.90223 4.24699L3.31677 8.55346C3.31677 8.55346 2.93238 8.86937 2.78828 9.15204C2.64417 9.43471 2.5 9.68412 2.5 11.5962C2.5 13.4584 2.86833 14.1235 3.30076 14.3396L3.7492 14.3729V16.1188C3.7492 16.6841 4.06947 17 4.59796 17H5.0624C5.59088 17 5.86316 16.6841 5.86316 16.1188L5.8631 14.3729H15.1357V16.1188C15.1357 16.6841 15.424 17 15.9365 17H16.4009C16.9294 17 17.2497 16.6841 17.2497 16.1188V14.3729L17.6981 14.3396C18.1466 14.1068 18.4989 13.4417 18.4989 11.5962C18.5148 9.68412 18.3547 9.43461 18.2266 9.15204H18.2266ZM5.59088 12.494C5.03033 12.494 4.56597 12.0118 4.56597 11.4299C4.56597 10.848 5.03041 10.3658 5.59088 10.3658C6.15144 10.3658 6.6158 10.848 6.6158 11.4299C6.61586 12.0118 6.16742 12.494 5.59088 12.494ZM15.456 12.494C14.8955 12.494 14.4311 12.0118 14.4311 11.4299C14.4311 10.848 14.8955 10.3658 15.456 10.3658C16.0166 10.3658 16.4809 10.848 16.4809 11.4299C16.481 12.0118 16.0166 12.494 15.456 12.494ZM15.424 7.80515H5.59089C5.59089 7.80515 5.39872 7.82176 5.46278 7.62225C5.51083 7.45597 6.16743 5.72683 6.31153 5.2612C6.37559 5.09492 6.69592 4.72913 7.1283 4.7458H13.9025C14.3349 4.71252 14.6552 5.09498 14.7193 5.2612C14.8634 5.72678 15.52 7.45597 15.568 7.62225C15.6161 7.82176 15.424 7.80515 15.424 7.80515H15.424Z" fill="#9499A8"/>
</svg>

<svg width="21" height="20" fill="none" xmlns="http://www.w3.org/2000/svg">
  <path fill-rule="evenodd" clip-rule="evenodd" d="M18.227 9.152c-.145-.283-.529-.599-.529-.599l-1.585-4.306C15.776 3.432 14.816 3 14.399 3H6.616c-.417 0-1.393.432-1.714 1.247L3.317 8.553s-.385.316-.529.599c-.144.283-.288.532-.288 2.444 0 1.862.368 2.527.8 2.744l.45.033v1.746c0 .565.32.881.848.881h.464c.529 0 .801-.316.801-.881v-1.746h9.273v1.746c0 .565.288.881.8.881h.465c.528 0 .849-.316.849-.881v-1.746l.448-.033c.449-.233.8-.898.8-2.744.017-1.912-.143-2.161-.271-2.444ZM5.59 12.494c-.56 0-1.025-.482-1.025-1.064 0-.582.464-1.064 1.025-1.064.56 0 1.025.482 1.025 1.064 0 .582-.449 1.064-1.025 1.064Zm9.865 0c-.56 0-1.025-.482-1.025-1.064 0-.582.465-1.064 1.025-1.064.56 0 1.025.482 1.025 1.064 0 .582-.464 1.064-1.025 1.064Zm-.032-4.689H5.591s-.192.017-.128-.183c.048-.166.704-1.895.849-2.36.064-.167.384-.533.816-.516h6.774c.433-.033.753.349.817.515.144.466.801 2.195.849 2.361.048.2-.144.183-.144.183Z" fill="#9499A8"/>
</svg>
